X:230
T:Time on the wing (noted by Chas Barrett)
%%VWML:SBG-1-2-520-0
F:http://www.vwml.org/record/SBG/1/2/520
Z:Original Sibelius transcriptions by M. & S. Graebe
M:6/8
I:linebreak $
K:Bb
V:1 treble nm="P1"
V:1
 (B2 B) A G F | B2 d F3 | B2 B AGF | G2 E F3 | B2 B AGF |$ B2 d F2 F | G e d c B A | (B3 B2) | B | %9
 c2 c d2 B | AGA B2 B |$ c2 c d2 B | B3 A2 F | B2 B AGF | B2 d F2 F | G e d c B A | (B3 B2) x | %17

